X: 1
T: Atholl Braes #2
D: Silly Wizard, Silly Wizard (1976)
O: Scotland
Z: Nigel Gatherer <gatherer@argonet.co.uk>
M: 4/4
L: 1/8
K: A
AF | "A"E2EF    A2Ac | "E7"BABc BcFA | "A"E2EF    A2Ac | "E7"BABc "A"A2 :|
Bc | "D"d2fd "A"c2ec | "E7"BABc BAFA | "D"d2fd "A"c2ec | "E7"BABc "A"A2 |]
Bc | "D"d2fd "A"c2ec | "E7"BABc BAFA | "A"E2EF    A2Ac | "E7"BABc "A"A2 |]
